X:1
T:Reel #1
M:4/4
L:1/8
N:reel
Z:Harry Ferguson 3/1/2003
K:Em
|: E2EB, E2ED | EFGA B2AG | D2DA, DFAg | fedB A2GF| 
| E2EB, E2ED | EFGA B2AG | Fgfe dBAF |[1 GEFD E4 :|[2 GEFD E3E ||
|: GBeE GBeE | GBe2 e3D | FAd2 d3g | fedB A2GF | 
EBeE GBeE | GBe2 e2ef | gbag fedB |[1 AFGD E3E :|[2 AFGD E4 ||
